**kern	**silbe	**kern	**silbe	**kern	**silbe
*ICvox	*	*ICvox	*	*ICvox	*
*C:	*	*C:	*	*C:	*
*M4/4	*	*M4/4	*	*M4/4	*
*clefF4	*	*clefC3	*	*clefC3	*
r;	.	r;	.	r;	.
=1	=1	=1	=1	=1	=1
1r	.	1r	.	1r	.
=2	=2	=2	=2	=2	=2
1r	.	1r	.	1r	.
=3	=3	=3	=3	=3	=3
1r	.	1r	.	1r	.
=4	=4	=4	=4	=4	=4
1r	.	1r	.	1r	.
=5	=5	=5	=5	=5	=5
1r	.	1r	.	1r	.
=6	=6	=6	=6	=6	=6
1r	.	1r	.	1r	.
=7	=7	=7	=7	=7	=7
1r	.	1r	.	1r	.
=8	=8	=8	=8	=8	=8
1r	.	1r	.	1r	.
=9	=9	=9	=9	=9	=9
4.c	Buy	1r	.	1r	.
8c	for	.	.	.	.
4c	me	.	.	.	.
8c	the	.	.	.	.
8[B-	rain,	.	.	.	.
=10	=10	=10	=10	=10	=10
4B-]	_	1r	.	1r	.
4A	my	.	.	.	.
4G	dar-	.	.	.	.
4F	-ling,	.	.	.	.
=11	=11	=11	=11	=11	=11
4.G	buy	1r	.	1r	.
8G	for	.	.	.	.
4G	me	.	.	.	.
8F	the	.	.	.	.
8[G	rain	.	.	.	.
=12	=12	=12	=12	=12	=12
4G]	_	1r	.	1r	.
4r	.	.	.	.	.
2r	.	.	.	.	.
=13	=13	=13	=13	=13	=13
4.c	Buy	1r	.	1r	.
8c	for	.	.	.	.
4c	me	.	.	.	.
8c	the	.	.	.	.
8[B-	cry-	.	.	.	.
=14	=14	=14	=14	=14	=14
8B-]	_	1r	.	1r	.
8[A	-stal	.	.	.	.
8A]	_	.	.	.	.
8[G	pools	.	.	.	.
4G]	_	.	.	.	.
4F	theat	.	.	.	.
=15	=15	=15	=15	=15	=15
4.G	fall	1r	.	1r	.
8G	u-	.	.	.	.
4G	-pon	.	.	.	.
8F	the	.	.	.	.
8[G	plain.	.	.	.	.
=16	=16	=16	=16	=16	=16
4G]	_	1r	.	1r	.
4r	.	.	.	.	.
8F	And	.	.	.	.
8G	I'll	.	.	.	.
4A	_	.	.	.	.
=17	=17	=17	=17	=17	=17
4.A	buy	4.c	Buy	1r	.
8A	for	8c	for	.	.
4A	you	4c	you	.	.
8A	a	8c	a	.	.
8[A	rain	8[c	rain	.	.
=18	=18	=18	=18	=18	=18
4A]	_	4c]	_	1r	.
4A	bow,	4c	bow,	.	.
4r	.	4r	.	.	.
8A	and	8c	and	.	.
8A	a	8c	a	.	.
=19	=19	=19	=19	=19	=19
8G	mil-	8d	mil-	1r	.
8[G	-lion	8[d	-lion	.	.
4G]	_	4d]	_	.	.
4G	pots	4d	pots	.	.
8F	of	8c 8f	of	.	.
8[G	gold	8[d 8[f	gold	.	.
=20	=20	=20	=20	=20	=20
4G]	_	4d] 4f]	_	1r	.
4r	.	4r	.	.	.
2r	.	2r	.	.	.
=21	=21	=21	=21	=21	=21
8c	Buy	8e	Buy	1r	.
8[c	it	8[e	it	.	.
8c]	_	8e]	_	.	.
4.c	for	4.e	for	.	.
8c	me	8e	me	.	.
8[c	now,	8[f	now,	.	.
=22	=22	=22	=22	=22	=22
4.c]	_	4.f]	_	1r	.
8[G	babe,	8[d	babe,	.	.
4G]	_	4d]	_	.	.
8r	.	8r	.	.	.
8F	be-	8B-	be-	.	.
=23	=23	=23	=23	=23	=23
8G	-fore	8c	-fore	1r	.
8[G	I	8[c	I	.	.
4G]	_	4c]	_	.	.
4G	am	4c	am	.	.
8F	too	8d	too	.	.
8[G	old	8[d	old	.	.
=24	=24	=24	=24	=24	=24
1G_	_	1d_	_	4r	.
.	.	.	.	4c	I
.	.	.	.	4B-	am
.	.	.	.	8A	too
.	.	.	.	8[G	old...
=25	=25	=25	=25	=25	=25
2.G]	_	2.d]	_	2.G]	_
4F	_	4[c	_	4F	_
=26	=26	=26	=26	=26	=26
4G	_	4c]	_	4G	_
4r	.	4r	.	4r	.
2r	.	2r	.	2r	.
=27	=27	=27	=27	=27	=27
1r	.	1r	.	1r	.
=28	=28	=28	=28	=28	=28
1r	.	1r	.	1r	.
=29	=29	=29	=29	=29	=29
1r	.	1r	.	1r	.
=30	=30	=30	=30	=30	=30
4.c	Buy	1r	.	1r	.
8c	for	.	.	.	.
4c	me	.	.	.	.
8c	the	.	.	.	.
8[B-	sun,	.	.	.	.
=31	=31	=31	=31	=31	=31
4B-]	_	1r	.	1r	.
4A	my	.	.	.	.
4G	dar-	.	.	.	.
4F	-ling,,	.	.	.	.
=32	=32	=32	=32	=32	=32
4.G	buy	1r	.	1r	.
8G	for	.	.	.	.
4G	me	.	.	.	.
8F	the	.	.	.	.
8[G	sun	.	.	.	.
=33	=33	=33	=33	=33	=33
4G]	_	1r	.	1r	.
4r	.	.	.	.	.
2r	.	.	.	.	.
=34	=34	=34	=34	=34	=34
4.c	Buy	1r	.	1r	.
8c	for	.	.	.	.
4c	me	.	.	.	.
8c	the	.	.	.	.
8[B-	light	.	.	.	.
=35	=35	=35	=35	=35	=35
8B-]	_	1r	.	1r	.
8[A	that	.	.	.	.
8A]	_	.	.	.	.
8[G	falls	.	.	.	.
4G]	_	.	.	.	.
4F	when	.	.	.	.
=36	=36	=36	=36	=36	=36
4G	day	1r	.	1r	.
4G	has	.	.	.	.
4G	just	.	.	.	.
8F	be-	.	.	.	.
8[G	-gun	.	.	.	.
=37	=37	=37	=37	=37	=37
4G]	_	1r	.	1r	.
4r	.	.	.	.	.
8G	And	.	.	.	.
8G	I'll	.	.	.	.
4A	_	.	.	.	.
=38	=38	=38	=38	=38	=38
4.A	buy	4.c	Buy	1r	.
8A	for	8c	for	.	.
4A	you	4c	you	.	.
8A	a	8c	a	.	.
8[A	sha-	8[c	sha-	.	.
=39	=39	=39	=39	=39	=39
8A]	-dow,	8c]	-dow,	1r	.
8[A	_	8[c	_	.	.
4A]	_	4c]	_	.	.
4r	.	4r	.	.	.
8A	to	8c	to	.	.
8A	pro-	8c	pro-	.	.
=40	=40	=40	=40	=40	=40
8G	-tect	8d	-tect	1r	.
8[G	you	8[d	you	.	.
4G]	_	4d]	_	.	.
4G	from	4d	from	.	.
8F	the	8c	the	.	.
8[G	day	8[d 8[f	day	.	.
=41	=41	=41	=41	=41	=41
4G]	_	4d] 4f]	_	1r	.
4r	.	4r	.	.	.
2r	.	2r	.	.	.
=42	=42	=42	=42	=42	=42
8c	Buy	8e	Buy	1r	.
4c	it	4e	it	.	.
4.c	for	4.e	for	.	.
8c	me	8e	me	.	.
8[c	now,	8[f	now,	.	.
=43	=43	=43	=43	=43	=43
4.c]	_	4.f]	_	1r	.
8[G	babe,	8[d	babe,	.	.
4G]	_	4d]	_	.	.
8r	.	8r	.	.	.
8F	be-	8B-	be-	.	.
=44	=44	=44	=44	=44	=44
8G	-fore	8c	-fore	1r	.
8[G	I	8[c	I	.	.
4G]	_	4c]	_	.	.
4G	go	4c	go	.	.
8F	a-	8d	a-	.	.
8[G	-way	8[d	-way	.	.
=45	=45	=45	=45	=45	=45
1G_	_	1d_	_	4r	.
.	.	.	.	4c	I'll
.	.	.	.	4B-	go
.	.	.	.	4A	a-
=46	=46	=46	=46	=46	=46
2.G]	_	2.d]	_	2.G	-way...
4F	_	4[c	_	4F	_
=47	=47	=47	=47	=47	=47
4G	_	4c]	_	4G	_
4r	.	4r	.	4r	.
2r	.	2r	.	2r	.
=48	=48	=48	=48	=48	=48
1r	.	1r	.	1r	.
=49	=49	=49	=49	=49	=49
1r	.	1r	.	1r	.
=50	=50	=50	=50	=50	=50
1r	.	1r	.	1r	.
=51	=51	=51	=51	=51	=51
4.c	Buy	1r	.	1r	.
8c	for	.	.	.	.
4c	me	.	.	.	.
8c	the	.	.	.	.
8[B-	ro	.	.	.	.
=52	=52	=52	=52	=52	=52
8B-]	_	1r	.	1r	.
8[A	bin,	.	.	.	.
8A]	_	.	.	.	.
8[G	dar-	.	.	.	.
8G]	_	.	.	.	.
8[F	-ling,	.	.	.	.
4F]	_	.	.	.	.
=53	=53	=53	=53	=53	=53
4.G	buy	1r	.	1r	.
8G	for	.	.	.	.
4G	me	.	.	.	.
8F	the	.	.	.	.
8[G	wing	.	.	.	.
=54	=54	=54	=54	=54	=54
4G]	_	1r	.	1r	.
4r	.	.	.	.	.
2r	.	.	.	.	.
=55	=55	=55	=55	=55	=55
4.c	Buy	1r	.	1r	.
8c	for	.	.	.	.
4c	me	.	.	.	.
8c	a	.	.	.	.
8[B-	spar-	.	.	.	.
=56	=56	=56	=56	=56	=56
8B-]	_	1r	.	1r	.
8[A	-row,	.	.	.	.
4A]	_	.	.	.	.
8G	or	.	.	.	.
8[F	most	.	.	.	.
4F]	_	.	.	.	.
=57	=57	=57	=57	=57	=57
8G	a-	1r	.	1r	.
8[G	-ny	.	.	.	.
4G]	_	.	.	.	.
8G	fly-	.	.	.	.
8[F	-ing	.	.	.	.
8F]	_	.	.	.	.
8[G	thing	.	.	.	.
=58	=58	=58	=58	=58	=58
4G]	_	1r	.	1r	.
4r	.	.	.	.	.
8G	And	.	.	.	.
8G	I'll	.	.	.	.
4A	_	.	.	.	.
=59	=59	=59	=59	=59	=59
4.A	buy	4.c	Buy	1r	.
8A	for	8c	for	.	.
4A	you	4c	you	.	.
8A	a	8c	a	.	.
8[A	tree,	8[c	tree,	.	.
=60	=60	=60	=60	=60	=60
8A]	_	8c]	_	1r	.
8[A	my	8[c	my	.	.
8A]	_	8c]	_	.	.
8[A	love,	8[c	love,	.	.
4A]	_	4c]	_	.	.
8F	where	8c	where	.	.
8F	a	8c	a	.	.
=61	=61	=61	=61	=61	=61
8G	ro-	8d	ro-	1r	.
8[G	-bin's	8[d	-bin's	.	.
4G]	_	4d]	_	.	.
4G	nest	4d	nest	.	.
8F	may	8c 8e	may	.	.
8[G	grow	8[d 8[f	grow	.	.
=62	=62	=62	=62	=62	=62
4G]	_	4d] 4f]	_	1r	.
4r	.	4r	.	.	.
2r	.	2r	.	.	.
=63	=63	=63	=63	=63	=63
8c	Buy	8e	Buy	1r	.
4c	it	4e	it	.	.
4.c	for	4.e	for	.	.
8c	me	8e	me	.	.
8[c	now,	8[f	now,	.	.
=64	=64	=64	=64	=64	=64
4.c]	_	4.f]	_	1r	.
8[G	babe,	8[d	babe,	.	.
4G]	_	4d]	_	.	.
8r	.	8r	.	.	.
8F	the	8B-	the	.	.
=65	=65	=65	=65	=65	=65
4G	years	4c	years	1r	.
4G	all	4c	all	.	.
8G	hur-	8c	hur-	.	.
8[F	-ry	8[c	-ry	.	.
8F]	_	8c]	_	.	.
8[G	so	8[d	so	.	.
=66	=66	=66	=66	=66	=66
1G_	_	1d_	_	4r	.
.	.	.	.	4c	They
.	.	.	.	8B-	hur-
.	.	.	.	8[A	-ry
.	.	.	.	4A]	_
=67	=67	=67	=67	=67	=67
2.G]	_	2.d]	_	2.G	so...
4F	_	4[c	_	4F	_
=68	=68	=68	=68	=68	=68
4G	_	4c]	_	4G	_
4r	.	4r	.	4r	.
2r	.	2r	.	2r	.
=69	=69	=69	=69	=69	=69
1r	.	1r	.	1r	.
=70	=70	=70	=70	=70	=70
1r	.	1r	.	1r	.
=71	=71	=71	=71	=71	=71
2r	.	1r	.	1r	.
4r	.	.	.	.	.
4c	I	.	.	.	.
=72	=72	=72	=72	=72	=72
8c	can-	1r	.	1r	.
8[c	-not	.	.	.	.
8c]	_	.	.	.	.
8[c	buy	.	.	.	.
4c]	_	.	.	.	.
8c	you	.	.	.	.
8[B-	hap-	.	.	.	.
=73	=73	=73	=73	=73	=73
8B-]	_	1r	.	1r	.
8[A	-pi-	.	.	.	.
8A]	_	.	.	.	.
8[G	-ness,	.	.	.	.
4G]	_	.	.	.	.
4F	I	.	.	.	.
=74	=74	=74	=74	=74	=74
8G	can-	1r	.	1r	.
8[G	-not	.	.	.	.
8G]	_	.	.	.	.
8[G	buy	.	.	.	.
4G]	_	.	.	.	.
8F	you	.	.	.	.
8[G	_	.	.	.	.
=75	=75	=75	=75	=75	=75
4G]	years.	1r	.	1r	.
4r	.	.	.	.	.
4r	.	.	.	.	.
4c	I	.	.	.	.
=76	=76	=76	=76	=76	=76
8c	can-	1r	.	1r	.
8[c	-not	.	.	.	.
8c]	_	.	.	.	.
8[c	buy	.	.	.	.
4c]	_	.	.	.	.
8c	you	.	.	.	.
8[B-	hap-	.	.	.	.
=77	=77	=77	=77	=77	=77
8B-]	_	1r	.	1r	.
8[A	-pi-	.	.	.	.
8A]	_	.	.	.	.
8[G	-ness,	.	.	.	.
4G]	_	.	.	.	.
4F	in	.	.	.	.
=78	=78	=78	=78	=78	=78
4G	place	1r	.	1r	.
8G	of	.	.	.	.
8[G	all	.	.	.	.
4G]	_	.	.	.	.
8F	the	.	.	.	.
8[G	tears	.	.	.	.
=79	=79	=79	=79	=79	=79
4G]	_	1r	.	1r	.
8r	.	.	.	.	.
8G	But	.	.	.	.
8G	I	.	.	.	.
8[A	can	.	.	.	.
4A]	_	.	.	.	.
=80	=80	=80	=80	=80	=80
4.A	buy	4.c	Buy	1r	.
8A	for	8c	for	.	.
4A	you	4c	you	.	.
8A	a	8c	a	.	.
8[A	grave	8[c	grave	.	.
=81	=81	=81	=81	=81	=81
4A]	_	4c]	_	1r	.
4A	stone,	4c	stone,	.	.
4r	.	4r	.	.	.
8r	.	8r	.	.	.
8F	to	8c	to	.	.
=82	=82	=82	=82	=82	=82
8G	lay	8d	lay	1r	.
8[G	be	8[d	be	.	.
4G]	_	4d]	_	.	.
4G	hind	4d	hind	.	.
8F	your	8c 8e	your	.	.
8[G	head	8[d 8[f	head	.	.
=83	=83	=83	=83	=83	=83
4G]	_	4d] 4f]	_	1r	.
4r	.	4r	.	.	.
2r	.	2r	.	.	.
=84	=84	=84	=84	=84	=84
4c	Grave-	4e	Grave-	1r	.
4c	-stones	4e	-stones	.	.
4c	cheer	4e	cheer	.	.
4c	the	4e	the	.	.
=85	=85	=85	=85	=85	=85
8c	li-	8f	li-	1r	.
8[G	-ving,	8[d	-ving,	.	.
8G]	_	8d]	_	.	.
8[G	dear,	8[d	dear,	.	.
4G]	_	4d]	_	.	.
4G	they're	4c	they're	.	.
=86	=86	=86	=86	=86	=86
8G	no	8c	no	1r	.
8[G	use	8[c	use	.	.
4G]	_	4c]	_	.	.
4G	to	4c	to	.	.
8F~	the	8d~	the	.	.
8[G	dead	8[d	dead	.	.
=87	=87	=87	=87	=87	=87
1G_	_	1d_	_	4c	No
.	.	.	.	4c	use
.	.	.	.	4B-	to
.	.	.	.	8A	the
.	.	.	.	8[c	dead...
=88	=88	=88	=88	=88	=88
2.G]	_	2.d]	_	2.c]	_
4F	_	4[c	_	4B-	_
=89	=89	=89	=89	=89	=89
4G	_	4c]	_	4c	_
4r	.	4r	.	2.r	.
2r	.	2r	.	.	.
=90	=90	=90	=90	=90	=90
1r	.	1r	.	1r	.
=91	=91	=91	=91	=91	=91
1r	.	1r	.	1r	.
=92	=92	=92	=92	=92	=92
1r	.	1r	.	1r	.
=93	=93	=93	=93	=93	=93
1r	.	1r	.	1r	.
=94	=94	=94	=94	=94	=94
1r	.	1r	.	1r	.
=95	=95	=95	=95	=95	=95
1r	.	1r	.	1r	.
=96	=96	=96	=96	=96	=96
1r	.	1r	.	1r	.
=97	=97	=97	=97	=97	=97
1r	.	1r	.	1r	.
=98	=98	=98	=98	=98	=98
1r	.	1r	.	1r	.
=99	=99	=99	=99	=99	=99
1r	.	1r	.	1r	.
=100	=100	=100	=100	=100	=100
1r	.	1r	.	1r	.
=101	=101	=101	=101	=101	=101
1r	.	1r	.	1r	.
=102	=102	=102	=102	=102	=102
1r	.	1r	.	1r	.
=103	=103	=103	=103	=103	=103
1r	.	1r	.	1r	.
=104	=104	=104	=104	=104	=104
1r	.	1r	.	1r	.
=105	=105	=105	=105	=105	=105
1r	.	1r	.	1r	.
=106	=106	=106	=106	=106	=106
1r	.	1r	.	1r	.
=107	=107	=107	=107	=107	=107
1r	.	1r	.	1r	.
=108	=108	=108	=108	=108	=108
1r	.	1r	.	1r	.
r;	.	r;	.	r;	.
r;	.	r;	.	r;	.
*-	*-	*-	*-	*-	*-
!!!ENC: Nathaniel Condit-Schultz